X: 24942
T: Maid I Never Forgot, The
R: reel
M: 4/4
K: Eminor
|:E3F G3A|B2 Ad dBAc|BGEF GAB^c|d2 e^c dBAF|
E3F G3A|B2 Ad dBAc|BGEF GAB^c|dBAF GE E2:|
|:B3d e3f|geaf gfed|BGEF GAB^c|d2 e^c dBAF|
E2 BE dEcE|B2 Ad dBAc|BGEF GAB^c|dBAF GE E2:|

